src/assets/icons/arrow-left.svg

<svg width="24" height="24" viewBox="0 0 24 24" fill="none" xmlns="http://www.w3.org/2000/svg">
<path fill-rule="evenodd" clip-rule="evenodd" d="M15.5371 21.5928L6.29215 12.6788C5.90262 12.3036 5.90262 11.6974 6.29215 11.3212L15.5371 2.40715C16.0995 1.86428 17.0144 1.86428 17.5777 2.40715C18.14 2.95003 18.14 3.8311 17.5777 4.37397L9.66913 12.0005L17.5777 19.6251C18.14 20.1689 18.14 21.05 17.5777 21.5928C17.0144 22.1357 16.0995 22.1357 15.5371 21.5928" fill="white"/>
</svg>

<svg width="24" height="24" fill="none" xmlns="http://www.w3.org/2000/svg"><path fill-rule="evenodd" clip-rule="evenodd" d="M15.537 21.593l-9.245-8.914a.935.935 0 010-1.358l9.245-8.914a1.482 1.482 0 012.04 0 1.357 1.357 0 010 1.967L9.67 12.001l7.909 7.624a1.358 1.358 0 010 1.968 1.482 1.482 0 01-2.04 0" fill="#fff"/></svg>
